; generated by Slic3r 1.37.2.1-prusa3d-win64 on 2017-12-12 at 15:56:55

; 

; external perimeters extrusion width = 0.42mm
; perimeters extrusion width = 0.45mm
; infill extrusion width = 0.45mm
; solid infill extrusion width = 0.45mm
; top infill extrusion width = 0.42mm
; first layer extrusion width = 0.42mm

M107 ; disable fan
M115 U3.1.0 ; tell printer latest fw version
M83  ; extruder relative mode
M104 S215 ; set extruder temp
M140 S55 ; set bed temp
M190 S55 ; wait for bed temp
M109 S215 ; wait for extruder temp
G28 W ; home all without mesh bed level
G80 ; mesh bed leveling
G1 Y-3.0 F1000.0 ; go outside pritn area
G1 X60.0 E9.0  F1000.0 ; intro line
G1 X100.0 E12.5  F1000.0 ; intro line
G92 E0.0
M900 K30
G21 ; set units to millimeters
G90 ; use absolute coordinates
M83 ; use relative distances for extrusion
;BEFORE_LAYER_CHANGE
;0.2


G1 E-0.80000 F2100.00000 ; retract
G1 Z0.600 F7200.000 ; lift Z
;AFTER_LAYER_CHANGE
;0.2
G1 X80.915 Y99.515 F7200.000 ; move to first skirt point
G1 Z0.200 F7200.000 ; restore layer Z
G1 E0.80000 F2100.00000 ; unretract
M204 S1000 ; adjust acceleration
G1 F1800
G1 X81.421 Y99.236 E0.01811 ; skirt
G1 X124.123 Y82.209 E1.44140 ; skirt
G1 X125.005 Y82.042 E0.02813 ; skirt
G1 X125.875 Y82.209 E0.02778 ; skirt
G1 X168.578 Y99.236 E1.44142 ; skirt
G1 X169.084 Y99.514 E0.01811 ; skirt
G1 X169.611 Y100.038 E0.02331 ; skirt
G1 X187.153 Y124.185 E0.93581 ; skirt
G1 X187.451 Y124.833 E0.02237 ; skirt
G1 X187.544 Y125.540 E0.02237 ; skirt
G1 X187.422 Y126.243 E0.02237 ; skirt
G1 X187.096 Y126.881 E0.02249 ; skirt
G1 X186.729 Y127.283 E0.01704 ; skirt
G1 X186.278 Y127.593 E0.01716 ; skirt
G1 X185.772 Y127.790 E0.01704 ; skirt
G1 X185.230 Y127.867 E0.01716 ; skirt
G1 X144.996 Y127.958 E1.26152 ; skirt
G1 X64.801 Y127.868 E2.51446 ; skirt
G1 X64.254 Y127.797 E0.01728 ; skirt
G1 X63.735 Y127.600 E0.01740 ; skirt
G1 X63.279 Y127.291 E0.01728 ; skirt
G1 X62.905 Y126.881 E0.01740 ; skirt
G1 X62.579 Y126.247 E0.02237 ; skirt
G1 X62.456 Y125.544 E0.02237 ; skirt
G1 X62.547 Y124.837 E0.02237 ; skirt
G1 X62.847 Y124.185 E0.02249 ; skirt
G1 X80.388 Y100.039 E0.93577 ; skirt
G1 X80.873 Y99.557 E0.02143 ; skirt
G1 F5760
G1 X81.421 Y99.236 E-0.22009 ; wipe and retract
G1 F5760
G1 X82.869 Y98.659 E-0.53991 ; wipe and retract
G1 E-0.04000 F2100.00000 ; retract
G1 Z0.800 F7200.000 ; lift Z
G1 X83.388 Y102.383 F7200.000 ; move to first perimeter point
G1 Z0.200 F7200.000 ; restore layer Z
G1 E0.80000 F2100.00000 ; unretract
G1 F1800
G1 X86.110 Y102.717 E0.08601 ; perimeter
G1 X93.421 Y102.943 E0.22934 ; perimeter
G1 X100.705 Y102.268 E0.22935 ; perimeter
G1 X104.314 Y101.591 E0.11513 ; perimeter
G1 X105.885 Y101.400 E0.04961 ; perimeter
G1 X108.886 Y100.742 E0.09633 ; perimeter
G1 X111.791 Y99.718 E0.09660 ; perimeter
G1 X114.549 Y98.345 E0.09660 ; perimeter
G1 X115.714 Y97.573 E0.04381 ; perimeter
G1 X117.117 Y96.643 E0.05279 ; perimeter
G1 X119.457 Y94.639 E0.09660 ; perimeter
G1 X121.532 Y92.362 E0.09660 ; perimeter
G1 X123.312 Y89.848 E0.09660 ; perimeter
G1 X124.766 Y87.140 E0.09636 ; perimeter
G1 X125.013 Y86.548 E0.02010 ; perimeter
G1 X125.917 Y88.513 E0.06781 ; perimeter
G1 X127.539 Y91.132 E0.09660 ; perimeter
G1 X129.470 Y93.533 E0.09660 ; perimeter
G1 X131.682 Y95.677 E0.09660 ; perimeter
G1 X134.141 Y97.534 E0.09660 ; perimeter
G1 X136.809 Y99.074 E0.09660 ; perimeter
G1 X139.646 Y100.275 E0.09660 ; perimeter
G1 X142.609 Y101.118 E0.09660 ; perimeter
G1 X152.922 Y102.717 E0.32722 ; perimeter
G1 X160.242 Y102.943 E0.22962 ; perimeter
G1 X166.592 Y102.358 E0.19994 ; perimeter
G1 X166.544 Y102.525 E0.00544 ; perimeter
G1 X166.205 Y104.337 E0.05781 ; perimeter
G1 X166.091 Y106.186 E0.05807 ; perimeter
G1 X166.205 Y108.034 E0.05807 ; perimeter
G1 X166.546 Y109.855 E0.05807 ; perimeter
G1 X167.107 Y111.620 E0.05807 ; perimeter
G1 X167.881 Y113.302 E0.05807 ; perimeter
G1 X168.857 Y114.877 E0.05808 ; perimeter
G1 X170.627 Y116.987 E0.08636 ; perimeter
G1 X173.585 Y119.855 E0.12920 ; perimeter
G1 X176.878 Y122.342 E0.12939 ; perimeter
G1 X180.451 Y124.404 E0.12933 ; perimeter
G1 X181.127 Y124.696 E0.02308 ; perimeter
G1 X145.669 Y124.789 E1.11176 ; perimeter
G1 X145.312 Y123.370 E0.04588 ; perimeter
G1 X144.777 Y121.990 E0.04638 ; perimeter
G1 X144.077 Y120.687 E0.04638 ; perimeter
G1 X143.223 Y119.480 E0.04638 ; perimeter
G1 X142.226 Y118.386 E0.04638 ; perimeter
G1 X141.103 Y117.424 E0.04638 ; perimeter
G1 X139.870 Y116.607 E0.04638 ; perimeter
G1 X138.545 Y115.947 E0.04638 ; perimeter
G1 X137.150 Y115.456 E0.04638 ; perimeter
G1 X136.494 Y115.312 E0.02107 ; perimeter
G1 X135.705 Y115.139 E0.02532 ; perimeter
G1 X134.232 Y115.003 E0.04638 ; perimeter
G1 X132.753 Y115.048 E0.04638 ; perimeter
G1 X131.295 Y115.275 E0.04628 ; perimeter
G1 X129.848 Y115.669 E0.04701 ; perimeter
G1 X128.442 Y120.943 E0.17116 ; perimeter
G1 X127.955 Y119.029 E0.06195 ; perimeter
G1 X122.045 Y119.029 E0.18532 ; perimeter
G1 X121.558 Y120.943 E0.06195 ; perimeter
G1 X120.155 Y115.681 E0.17077 ; perimeter
G1 X119.414 Y115.453 E0.02429 ; perimeter
G1 X117.981 Y115.139 E0.04601 ; perimeter
G1 X116.508 Y115.003 E0.04638 ; perimeter
G1 X115.029 Y115.048 E0.04638 ; perimeter
G1 X113.567 Y115.275 E0.04638 ; perimeter
G1 X112.145 Y115.680 E0.04638 ; perimeter
G1 X110.782 Y116.257 E0.04638 ; perimeter
G1 X109.501 Y116.996 E0.04638 ; perimeter
G1 X108.321 Y117.888 E0.04638 ; perimeter
G1 X107.259 Y118.918 E0.04638 ; perimeter
G1 X106.331 Y120.070 E0.04638 ; perimeter
G1 X105.553 Y121.328 E0.04638 ; perimeter
G1 X104.934 Y122.672 E0.04638 ; perimeter
G1 X104.487 Y124.078 E0.04627 ; perimeter
G1 X104.345 Y124.789 E0.02272 ; perimeter
G1 X68.822 Y124.696 E1.11381 ; perimeter
G1 X71.366 Y123.429 E0.08912 ; perimeter
G1 X74.806 Y121.149 E0.12939 ; perimeter
G1 X77.940 Y118.464 E0.12939 ; perimeter
G1 X80.710 Y115.426 E0.12892 ; perimeter
G1 X81.143 Y114.876 E0.02193 ; perimeter
G1 X81.660 Y114.096 E0.02934 ; perimeter
G1 X82.532 Y112.473 E0.05779 ; perimeter
G1 X83.201 Y110.746 E0.05807 ; perimeter
G1 X83.653 Y108.950 E0.05807 ; perimeter
G1 X83.880 Y107.112 E0.05807 ; perimeter
G1 X83.880 Y105.260 E0.05807 ; perimeter
G1 X83.652 Y103.421 E0.05810 ; perimeter
G1 X83.403 Y102.441 E0.03171 ; perimeter
G1 F5760
G1 X85.586 Y102.664 E-0.76000 ; wipe and retract
G1 E-0.04000 F2100.00000 ; retract
G1 Z0.800 F7200.000 ; lift Z
G1 X130.157 Y115.976 F7200.000 ; move to first perimeter point
G1 Z0.200 F7200.000 ; restore layer Z
G1 E0.80000 F2100.00000 ; unretract
G1 F1800
G1 X128.433 Y122.440 E0.20976 ; perimeter
G1 X127.662 Y119.406 E0.09816 ; perimeter
G1 X122.338 Y119.406 E0.16694 ; perimeter
G1 X121.567 Y122.440 E0.09816 ; perimeter
G1 X119.844 Y115.980 E0.20962 ; perimeter
G1 X119.318 Y115.818 E0.01725 ; perimeter
G1 X117.923 Y115.513 E0.04479 ; perimeter
G1 X116.496 Y115.380 E0.04492 ; perimeter
G1 X115.064 Y115.424 E0.04492 ; perimeter
G1 X113.648 Y115.644 E0.04492 ; perimeter
G1 X112.270 Y116.036 E0.04492 ; perimeter
G1 X110.951 Y116.595 E0.04492 ; perimeter
G1 X109.710 Y117.311 E0.04492 ; perimeter
G1 X108.567 Y118.175 E0.04492 ; perimeter
G1 X107.538 Y119.172 E0.04492 ; perimeter
G1 X107.131 Y119.677 E0.02034 ; perimeter
G1 X106.640 Y120.288 E0.02459 ; perimeter
G1 X105.885 Y121.507 E0.04492 ; perimeter
G1 X105.287 Y122.808 E0.04492 ; perimeter
G1 X104.853 Y124.172 E0.04488 ; perimeter
G1 X104.654 Y125.167 E0.03179 ; perimeter
G1 X67.150 Y125.068 E1.17593 ; perimeter
G1 X67.529 Y124.918 E0.01277 ; perimeter
G1 X71.177 Y123.102 E0.12780 ; perimeter
G1 X74.579 Y120.848 E0.12793 ; perimeter
G1 X77.677 Y118.193 E0.12793 ; perimeter
G1 X80.422 Y115.182 E0.12776 ; perimeter
G1 X80.837 Y114.655 E0.02102 ; perimeter
G1 X81.336 Y113.903 E0.02831 ; perimeter
G1 X82.189 Y112.315 E0.05651 ; perimeter
G1 X82.841 Y110.631 E0.05661 ; perimeter
G1 X83.281 Y108.880 E0.05661 ; perimeter
G1 X83.503 Y107.089 E0.05661 ; perimeter
G1 X83.503 Y105.283 E0.05661 ; perimeter
G1 X83.281 Y103.491 E0.05662 ; perimeter
G1 X82.886 Y101.941 E0.05015 ; perimeter
G1 X86.139 Y102.341 E0.10276 ; perimeter
G1 X93.410 Y102.565 E0.22807 ; perimeter
G1 X100.653 Y101.894 E0.22807 ; perimeter
G1 X104.256 Y101.218 E0.11496 ; perimeter
G1 X105.821 Y101.027 E0.04943 ; perimeter
G1 X108.782 Y100.379 E0.09504 ; perimeter
G1 X111.644 Y99.370 E0.09514 ; perimeter
G1 X114.360 Y98.018 E0.09514 ; perimeter
G1 X115.506 Y97.259 E0.04308 ; perimeter
G1 X116.890 Y96.342 E0.05206 ; perimeter
G1 X119.194 Y94.368 E0.09514 ; perimeter
G1 X121.238 Y92.125 E0.09514 ; perimeter
G1 X122.991 Y89.649 E0.09514 ; perimeter
G1 X124.425 Y86.978 E0.09505 ; perimeter
G1 X124.996 Y85.610 E0.04649 ; perimeter
G1 X126.250 Y88.334 E0.09404 ; perimeter
G1 X127.847 Y90.914 E0.09514 ; perimeter
G1 X129.749 Y93.278 E0.09514 ; perimeter
G1 X131.928 Y95.390 E0.09514 ; perimeter
G1 X134.349 Y97.219 E0.09514 ; perimeter
G1 X136.977 Y98.736 E0.09514 ; perimeter
G1 X139.771 Y99.919 E0.09514 ; perimeter
G1 X142.690 Y100.749 E0.09514 ; perimeter
G1 X152.957 Y102.341 E0.32576 ; perimeter
G1 X160.231 Y102.565 E0.22817 ; perimeter
G1 X167.107 Y101.932 E0.21650 ; perimeter
G1 X166.911 Y102.612 E0.02217 ; perimeter
G1 X166.580 Y104.384 E0.05652 ; perimeter
G1 X166.469 Y106.186 E0.05661 ; perimeter
G1 X166.580 Y107.988 E0.05661 ; perimeter
G1 X166.912 Y109.763 E0.05661 ; perimeter
G1 X167.459 Y111.483 E0.05661 ; perimeter
G1 X168.214 Y113.123 E0.05661 ; perimeter
G1 X169.163 Y114.655 E0.05650 ; perimeter
G1 X170.904 Y116.729 E0.08490 ; perimeter
G1 X173.831 Y119.568 E0.12786 ; perimeter
G1 X177.087 Y122.027 E0.12793 ; perimeter
G1 X180.620 Y124.067 E0.12791 ; perimeter
G1 X182.943 Y125.068 E0.07931 ; perimeter
G1 X145.351 Y125.167 E1.17868 ; perimeter
G1 X145.300 Y124.869 E0.00947 ; perimeter
G1 X144.952 Y123.484 E0.04477 ; perimeter
G1 X144.434 Y122.148 E0.04492 ; perimeter
G1 X143.756 Y120.886 E0.04492 ; perimeter
G1 X142.928 Y119.716 E0.04492 ; perimeter
G1 X141.963 Y118.658 E0.04492 ; perimeter
G1 X140.875 Y117.725 E0.04492 ; perimeter
G1 X139.681 Y116.934 E0.04492 ; perimeter
G1 X138.398 Y116.295 E0.04492 ; perimeter
G1 X137.047 Y115.819 E0.04492 ; perimeter
G1 X135.647 Y115.513 E0.04492 ; perimeter
G1 X134.220 Y115.380 E0.04492 ; perimeter
G1 X132.788 Y115.424 E0.04492 ; perimeter
G1 X131.374 Y115.644 E0.04489 ; perimeter
G1 X130.215 Y115.960 E0.03766 ; perimeter
G1 X129.759 Y115.934 F7200.000 ; move inwards before travel
G1 F5760
G1 X129.633 Y118.076 E-0.76000 ; wipe and retract
G1 E-0.04000 F2100.00000 ; retract
G1 Z0.800 F7200.000 ; lift Z
G1 X127.684 Y118.915 F7200.000 ; move to first infill point
G1 Z0.200 F7200.000 ; restore layer Z
G1 E0.80000 F2100.00000 ; unretract
G1 F1800
G1 X109.570 Y100.801 E0.80369 ; infill
G1 X109.175 Y100.940 E0.01312 ; infill
G1 X126.981 Y118.746 E0.78999 ; infill
G1 X126.447 Y118.746 E0.01674 ; infill
G1 X108.761 Y101.059 E0.78471 ; infill
G1 X108.323 Y101.155 E0.01406 ; infill
G1 X125.914 Y118.746 E0.78045 ; infill
G1 X125.380 Y118.746 E0.01674 ; infill
G1 X107.885 Y101.251 E0.77620 ; infill
G1 X107.448 Y101.347 E0.01406 ; infill
G1 X124.847 Y118.746 E0.77195 ; infill
G1 X124.313 Y118.746 E0.01674 ; infill
G1 X107.010 Y101.443 E0.76769 ; infill
G1 X106.572 Y101.538 E0.01406 ; infill
G1 X123.780 Y118.746 E0.76344 ; infill
G1 X123.246 Y118.746 E0.01674 ; infill
G1 X120.545 Y116.044 E0.11986 ; infill
G1 X120.738 Y116.772 E0.02362 ; infill
G1 X122.712 Y118.746 E0.08758 ; infill
G1 X122.179 Y118.746 E0.01674 ; infill
G1 X120.932 Y117.499 E0.05530 ; infill
G1 X121.126 Y118.227 E0.02362 ; infill
G1 X121.788 Y118.889 E0.02937 ; infill
G1 X121.680 Y119.314 E0.01377 ; infill
G1 X121.320 Y118.955 E0.01597 ; infill
G1 X121.514 Y119.682 E0.02362 ; infill
G1 X121.712 Y119.879 E0.00876 ; infill
G1 F5760
G1 X121.514 Y119.682 E-0.09668 ; wipe and retract
G1 F5760
G1 X121.320 Y118.955 E-0.26079 ; wipe and retract
G1 F5760
G1 X121.680 Y119.314 E-0.17628 ; wipe and retract
G1 F5760
G1 X121.788 Y118.889 E-0.15204 ; wipe and retract
G1 F5760
G1 X121.637 Y118.737 E-0.07422 ; wipe and retract
G1 E-0.04000 F2100.00000 ; retract
G1 Z0.800 F7200.000 ; lift Z
G1 X120.022 Y115.522 F7200.000 ; move to first infill point
G1 Z0.200 F7200.000 ; restore layer Z
G1 E0.80000 F2100.00000 ; unretract
G1 F1800
G1 X106.134 Y101.634 E0.61614 ; infill
G1 X105.676 Y101.710 E0.01456 ; infill
G1 X119.051 Y115.084 E0.59337 ; infill
G1 X118.367 Y114.934 E0.02194 ; infill
G1 X105.201 Y101.768 E0.58416 ; infill
G1 X104.725 Y101.826 E0.01503 ; infill
G1 X117.732 Y114.832 E0.57705 ; infill
G1 X117.143 Y114.778 E0.01853 ; infill
G1 X104.256 Y101.890 E0.57179 ; infill
G1 X103.806 Y101.974 E0.01434 ; infill
G1 X116.555 Y114.723 E0.56564 ; infill
G1 X116.033 Y114.734 E0.01639 ; infill
G1 X103.357 Y102.058 E0.56240 ; infill
G1 X102.908 Y102.143 E0.01434 ; infill
G1 X115.516 Y114.750 E0.55938 ; infill
G1 X114.998 Y114.767 E0.01623 ; infill
G1 X102.458 Y102.227 E0.55637 ; infill
G1 X102.009 Y102.311 E0.01434 ; infill
G1 X114.537 Y114.839 E0.55582 ; infill
G1 X114.075 Y114.910 E0.01466 ; infill
G1 X101.560 Y102.395 E0.55526 ; infill
G1 X101.110 Y102.479 E0.01434 ; infill
G1 X113.613 Y114.982 E0.55471 ; infill
G1 X113.187 Y115.090 E0.01379 ; infill
G1 X100.654 Y102.556 E0.55606 ; infill
G1 X100.165 Y102.602 E0.01539 ; infill
G1 X112.771 Y115.208 E0.55930 ; infill
G1 X112.356 Y115.326 E0.01355 ; infill
G1 X99.677 Y102.647 E0.56253 ; infill
G1 X99.189 Y102.692 E0.01539 ; infill
G1 X111.951 Y115.455 E0.56624 ; infill
G1 X111.576 Y115.613 E0.01277 ; infill
G1 X98.700 Y102.737 E0.57128 ; infill
G1 X98.212 Y102.783 E0.01539 ; infill
G1 X111.202 Y115.772 E0.57631 ; infill
G1 X110.827 Y115.931 E0.01277 ; infill
G1 X97.724 Y102.828 E0.58134 ; infill
G1 X97.235 Y102.873 E0.01539 ; infill
G1 X110.472 Y116.109 E0.58726 ; infill
G1 X110.133 Y116.305 E0.01225 ; infill
G1 X96.747 Y102.918 E0.59392 ; infill
G1 X96.259 Y102.964 E0.01539 ; infill
G1 X109.795 Y116.500 E0.60057 ; infill
G1 X109.457 Y116.695 E0.01225 ; infill
G1 X95.770 Y103.009 E0.60723 ; infill
G1 X95.282 Y103.054 E0.01539 ; infill
G1 X109.141 Y116.914 E0.61491 ; infill
G1 X108.837 Y117.143 E0.01195 ; infill
G1 X94.794 Y103.099 E0.62308 ; infill
G1 X94.305 Y103.145 E0.01539 ; infill
G1 X108.533 Y117.373 E0.63126 ; infill
G1 X108.229 Y117.602 E0.01195 ; infill
G1 X93.817 Y103.190 E0.63944 ; infill
G1 X93.316 Y103.222 E0.01576 ; infill
G1 X107.948 Y117.855 E0.64921 ; infill
G1 X107.678 Y118.118 E0.01184 ; infill
G1 X92.765 Y103.205 E0.66162 ; infill
G1 X92.215 Y103.188 E0.01728 ; infill
G1 X107.407 Y118.380 E0.67402 ; infill
G1 X107.136 Y118.643 E0.01184 ; infill
G1 X91.664 Y103.171 E0.68643 ; infill
G1 X91.114 Y103.154 E0.01728 ; infill
G1 X106.887 Y118.928 E0.69983 ; infill
G1 X106.649 Y119.224 E0.01191 ; infill
G1 X90.563 Y103.137 E0.71370 ; infill
G1 X90.013 Y103.120 E0.01728 ; infill
G1 X106.411 Y119.519 E0.72757 ; infill
G1 X106.174 Y119.815 E0.01191 ; infill
G1 X89.462 Y103.103 E0.74144 ; infill
G1 X88.911 Y103.087 E0.01728 ; infill
G1 X105.959 Y120.134 E0.75635 ; infill
G1 X105.755 Y120.464 E0.01216 ; infill
G1 X88.361 Y103.070 E0.77173 ; infill
G1 X87.810 Y103.053 E0.01728 ; infill
G1 X105.551 Y120.793 E0.78710 ; infill
G1 X105.347 Y121.123 E0.01216 ; infill
G1 X87.260 Y103.036 E0.80247 ; infill
G1 X86.709 Y103.019 E0.01728 ; infill
G1 X105.171 Y121.480 E0.81910 ; infill
G1 X105.003 Y121.846 E0.01262 ; infill
G1 X86.159 Y103.002 E0.83606 ; infill
G1 X85.558 Y102.934 E0.01897 ; infill
G1 X104.835 Y122.211 E0.85527 ; infill
G1 X104.667 Y122.578 E0.01263 ; infill
G1 X84.949 Y102.860 E0.87483 ; infill
G1 X84.341 Y102.785 E0.01923 ; infill
G1 X104.539 Y122.982 E0.89611 ; infill
G1 X104.410 Y123.387 E0.01333 ; infill
G1 X83.774 Y102.751 E0.91558 ; infill
